X: 4004
M: C|
L: 1/8
K: A
[|\
vA2(AB) ABcd | efec eaga |\
fgag fedc | BcBA GBBe |]
[|\
ceef ecAB | ceef eaga |\
ceef ecAc | FBBA GABd |\
ceef ecAB | ceef eaga |\
fgag fedc | BcBA GBBe |]


